X: 33220
T: Pub In The Square, The
R: hornpipe
M: 4/4
K: Gmajor
FG|:AD (3FGA GF EA|(3FED FA d2 ef|g2 ge fA df|(3efe (3dcB A2 FG|
AD (3FGA GF EA|FA df a2 gf|ge cA ^GA Bc|1 (3dcd ec dA FG:|2 (3dcd ec de fg||
a2 ag fd AG|(3FED FA d2 ef|g2 ge cd ef g2 fg|
a2 ag fd AF|GF GB Ad fd|Bg ge cA Bc|(3dcd ec de fg|
a2 ag fd AG|(3FED FA d2 ef|g2 ge cd ec|AG FA DA FG|
A^G Ad fe dc|BG Bd g2 fg|af dc Bg ec|(3dAF (3DFA d4||

